!!!!SEGMENT: pl-sa--135-a-iii-35--003_marescalchi-luigi--sinfonia-ex-d-presto.krn
!!!cenid: 17xx:580
!!!COM: Marescalchi, Luigi
!!!COM-rism: pe30002079
!!!CDT: 1745-1812
!!!CNT: Italian
!!!OTL: Sinfonia ex D – Presto
!!!PDT:
!!!AGN: Secular
!!!SMS-siglum: PL-SA
!!!SMS-shelfmark: 135/A III 35
!!!NIFC-rismID: 1001035052
!!!URL-scan: http://bc.bdsandomierz.pl/dlibra/publication/1492/edition/1460/content
!!!ONB-nifc: UWAGA: części Sinfonii: Allegro assai, Andante, Presto
!!!SMS-variant:
!!!SMS-altvar:
**kern	**dynam	**kern	**dynam	**kern	**dynam	**kern	**dynam	**kern	**dynam	**kern	**kern	**kern
*part8	*part8	*part7	*part7	*part6	*part6	*part5	*part5	*part4	*part4	*part3	*part2	*part1
*staff8	*	*staff7	*	*staff6	*	*staff5	*	*staff4	*	*staff3	*staff2	*staff1
*I"Basso	*	*I"Viola obbligato	*	*I"Violino Secundo	*	*I"Violino Primo	*	*I"Corno Secundo	*	*I"Corno Primo	*I"Oboe Secondo	*I"Oboe Primo
*I'B.	*	*I'Va	*	*I'Vn II	*	*I'Vn I	*	*I'C. II	*	*I'C. I	*I'Ob. II	*I'Ob. I
*clefF4	*	*clefC3	*	*clefG2	*	*clefG2	*	*clefG2	*	*clefG2	*clefG2	*clefG2
*	*	*	*	*	*	*	*	*ITrd6c10	*	*ITrd6c10	*	*
*k[f#c#]	*	*k[f#c#]	*	*k[f#c#]	*	*k[f#c#]	*	*k[f#c#]	*	*k[f#c#]	*k[f#c#]	*k[f#c#]
*M2/4	*	*M2/4	*	*M2/4	*	*M2/4	*	*M2/4	*	*M2/4	*M2/4	*M2/4
=1	=1	=1	=1	=1	=1	=1	=1	=1	=1	=1	=1	=1
!LO:N:vis=00	!	!	!	!	!LO:DY:rj:a	!	!	!LO:N:vis=00	!	!LO:N:vis=00	!LO:N:vis=00	!LO:N:vis=00
0r	.	8d\L	.	8d/L	p	8.ff#\L	.	0r	.	0r	0r	0r
.	.	8A\	.	8A/	.	.	.	.	.	.	.	.
.	.	.	.	.	.	16gg\Jk	.	.	.	.	.	.
.	.	.	.	.	.	8qqgg/	.	.	.	.	.	.
.	.	8e\	.	8e/	.	8gg\L	.	.	.	.	.	.
.	.	8A\J	.	8A/J	.	16ff#\L	.	.	.	.	.	.
.	.	.	.	.	.	16gg\JJ	.	.	.	.	.	.
=2	=2	=2	=2	=2	=2	=2	=2	=2	=2	=2	=2	=2
!	!	!	!	!	!LO:DY:a	!	!LO:DY:a	!	!	!	!	!
.	.	8f#\L	.	8f#/L	p	4.aa\	p	.	.	.	.	.
.	.	8d\	.	8d/	.	.	.	.	.	.	.	.
.	.	8f#\	.	8f#/	.	.	.	.	.	.	.	.
.	.	8d\J	.	8d/J	.	8aa\	.	.	.	.	.	.
=3	=3	=3	=3	=3	=3	=3	=3	=3	=3	=3	=3	=3
!	!	!	!	!	!LO:DY:a	!	!LO:DY:a	!	!	!	!	!
.	.	8g\L	.	8g/L	f	4.bb\	f	.	.	.	.	.
.	.	8d\	.	8d/	.	.	.	.	.	.	.	.
.	.	8g\	.	8g/	.	.	.	.	.	.	.	.
.	.	8d\J	.	8d/J	.	16ccc#\LL	.	.	.	.	.	.
.	.	.	.	.	.	16ddd\JJ	.	.	.	.	.	.
=4	=4	=4	=4	=4	=4	=4	=4	=4	=4	=4	=4	=4
!	!	!	!	!	!LO:DY:a	!	!LO:DY:a	!	!	!	!	!
.	.	8f#\L	.	8f#/L	p	4.aa\	p	.	.	.	.	.
.	.	8d\	.	8d/	.	.	.	.	.	.	.	.
.	.	8f#\	.	8f#/	.	.	.	.	.	.	.	.
!	!	!	!	!	!	!	!LO:DY:a	!	!	!	!	!
.	.	8d\J	.	8d/J	.	8aa\	f	.	.	.	.	.
=5	=5	=5	=5	=5	=5	=5	=5	=5	=5	=5	=5	=5
!LO:N:vis=00	!	!LO:TX:a:t=P:problem:takty zapisane powtórką	!	!	!	!	!	!	!LO:N:vis=00	!LO:N:vis=00	!LO:N:vis=00	!LO:N:vis=00
0r	.	8g\Lyy	.	8g/L	.	4.bb\	.	0r	.	0r	0r	0r
.	.	8d\yy	.	8d/	.	.	.	.	.	.	.	.
.	.	8g\yy	.	8g/	.	.	.	.	.	.	.	.
.	.	8d\Jyy	.	8d/J	.	16ccc#\LL	.	.	.	.	.	.
.	.	.	.	.	.	16ddd\JJ	.	.	.	.	.	.
=6	=6	=6	=6	=6	=6	=6	=6	=6	=6	=6	=6	=6
!	!	!	!	!	!	!	!LO:DY:a	!	!	!	!	!
.	.	8f#\Lyy	.	8f#/L	.	4.aa\	p	.	.	.	.	.
.	.	8d\yy	.	8d/	.	.	.	.	.	.	.	.
.	.	8f#\yy	.	8f#/	.	.	.	.	.	.	.	.
.	.	8d\Jyy	.	8d/J	.	8dd\	.	.	.	.	.	.
=7	=7	=7	=7	=7	=7	=7	=7	=7	=7	=7	=7	=7
!	!	!	!	!	!LO:DY:a	!	!LO:DY:a	!	!	!	!	!
.	.	8g\L	.	8g/L	f	4cc#`\	f	.	.	.	.	.
.	.	8A\	.	8A/	.	.	.	.	.	.	.	.
.	.	8f#\	.	8f#/	.	4dd`\	.	.	.	.	.	.
.	.	8A\J	.	8A/J	.	.	.	.	.	.	.	.
=8	=8	=8	=8	=8	=8	=8	=8	=8	=8	=8	=8	=8
!	!	!	!	!	!	!	!LO:DY:a:t=p	!	!	!	!	!
.	.	8c#\L	.	8c#/L	.	4gg\	p	.	.	.	.	.
.	.	8A\	.	8A/	.	.	.	.	.	.	.	.
!	!	!	!	!	!	!	!LO:DY:a:t=for	!	!	!	!	!
.	.	8c#\	.	8d/	.	4ff#\	f	.	.	.	.	.
.	.	8A\J	.	8A/J	.	.	.	.	.	.	.	.
=9	=9	=9	=9	=9	=9	=9	=9	=9	=9	=9	=9	=9
!LO:N:vis=0	!	!	!	!	!	!	!	!LO:N:vis=0	!	!LO:N:vis=0	!LO:N:vis=0	!LO:N:vis=0
1r	.	8g\L	.	8g/L	.	4cc#\	.	1r	.	1r	1r	1r
.	.	8A\	.	8A/	.	.	.	.	.	.	.	.
.	.	8f#\	.	8f#/	.	4dd\	.	.	.	.	.	.
.	.	8A\J	.	8A/J	.	.	.	.	.	.	.	.
=10	=10	=10	=10	=10	=10	=10	=10	=10	=10	=10	=10	=10
!	!	!	!	!	!	!	!LO:DY:a	!	!	!	!	!
.	.	8e\L	.	8e/L	.	(8ee\L	p	.	.	.	.	.
.	.	8A\	.	8A/	.	8cc#\J)	.	.	.	.	.	.
.	.	8c#\	.	8c#/	.	4a\	.	.	.	.	.	.
.	.	8A\J	.	8A/J	.	.	.	.	.	.	.	.
=11	=11	=11	=11	=11	=11	=11	=11	=11	=11	=11	=11	=11
!LO:SIC:o=:v:brakujący takt	!	!	!	!	!LO:DY:a	!	!	!LO:SIC:o=:v:brakujący takt	!	!LO:SIC:o=:v:brakujący takt	!LO:SIC:o=:v:brakujący takt	!LO:SIC:o=:v:brakujący takt
2ryy	.	8d\L	.	8d/L	f	2ryy	.	2ryy	.	2ryy	2ryy	2ryy
.	.	8A\	.	8A/	.	.	.	.	.	.	.	.
.	.	8c#\	.	8e/	.	.	.	.	.	.	.	.
.	.	8A\J	.	8A/J	.	.	.	.	.	.	.	.
=12	=12	=12	=12	=12	=12	=12	=12	=12	=12	=12	=12	=12
!	!	!	!LO:DY:a	!LO:SIC:o=:v:brakujący takt	!	!	!	!	!LO:DY:a	!	!	!
8D/L	.	8d\L	f	2ryy	.	8.ff#\L	.	4F#/	f	4d\	8.ff#\L	8.ff#\L
8AA/	.	8A\	.	.	.	.	.	.	.	.	.	.
.	.	.	.	.	.	16gg\Jk	.	.	.	.	16gg\Jk	16gg\Jk
.	.	.	.	.	.	8qqgg/	.	.	.	.	8qqgg/	8qqgg/
8E/	.	8e\	.	.	.	8gg\L	.	4A/	.	4e\	8gg\L	8gg\L
8AA/J	.	8A\J	.	.	.	16ff#\L	.	.	.	.	16ff#\L	16ff#\L
.	.	.	.	.	.	16gg\JJ	.	.	.	.	16gg\JJ	16gg\JJ
=13	=13	=13	=13	=13	=13	=13	=13	=13	=13	=13	=13	=13
!	!	!	!	!	!	!	!LO:DY:a	!	!	!	!	!
8F#\L	.	8f#\L	.	8f#/L	.	4.aa\	f	4d\	.	4f#\	4.aa\	4.aa\
8D\	.	8d\	.	8d/	.	.	.	.	.	.	.	.
8F#\	.	8f#\	.	8f#/	.	.	.	4D/	.	4d\	.	.
8D\J	.	8d\J	.	8d/J	.	8aa\	.	.	.	.	8aa\	8aa\
=14	=14	=14	=14	=14	=14	=14	=14	=14	=14	=14	=14	=14
*	*	*	*	*	*	*	*	*	*	*2\right	*	*
!	!	!	!	!	!	!	!	!	!	!LO:SIC:o=:v: caudy półnut z prawej strony	!LO:N:vis=4	!
8G\L	.	8g\L	.	8g/L	.	4.bb\	.	2D/	.	2d\	4.bb\	4.bb\
8D\	.	8d\	.	8d/	.	.	.	.	.	.	.	.
8G\	.	8g\	.	8g/	.	.	.	.	.	.	.	.
8D\J	.	8d\J	.	8d/J	.	16ccc#\LL	.	.	.	.	16ccc#\LL	16ccc#\LL
.	.	.	.	.	.	16ddd\JJ	.	.	.	.	16ddd\JJ	16ddd\JJ
=15	=15	=15	=15	=15	=15	=15	=15	=15	=15	=15	=15	=15
!LO:TX:a:t=P:problem:takty zapisane powtórką	!	!LO:TX:a:t=P:problem:takty zapisane powtórką	!	!	!	!	!LO:DY:a	!	!	!	!	!
8F#\Lyy	.	8f#\Lyy	.	8f#/L	.	4.aa\	p	4d\	.	4f#\	4.aa\	4.aa\
8D\yy	.	8d\yy	.	8d/	.	.	.	.	.	.	.	.
8F#\yy	.	8f#\yy	.	8f#/	.	.	.	4D/	.	4d\	.	.
8D\Jyy	.	8d\Jyy	.	8d/J	.	8aa\	.	.	.	.	8aa\	8aa\
=16	=16	=16	=16	=16	=16	=16	=16	=16	=16	=16	=16	=16
!	!	!	!	!	!	!	!	!LO:TX:a:t=P:problem:takty zapisane powtórką	!	!	!LO:N:vis=4	!
8G\Lyy	.	8g\Lyy	.	8g/L	.	4.bb\	.	2D/yy	.	2d\	4.bb\	4.bb\
8D\yy	.	8d\yy	.	8d/	.	.	.	.	.	.	.	.
8G\yy	.	8g\yy	.	8g/	.	.	.	.	.	.	.	.
8D\Jyy	.	8d\Jyy	.	8d/J	.	16ccc#\LL	.	.	.	.	16ccc#\LL	16ccc#\LL
.	.	.	.	.	.	16ddd\JJ	.	.	.	.	16ddd\JJ	16ddd\JJ
!	!	!LO:LB:g=original	!	!LO:LB:g=original	!	!LO:LB:g=original	!	!	!	!	!	!
=17	=17	=17	=17	=17	=17	=17	=17	=17	=17	=17	=17	=17
!	!	!LO:SIC:o=:v:omyłkowo wpisany dźwięk g	!	!	!	!	!	!	!	!	!	!
8F#\L	.	8f#\L	.	8f#/L	.	4.aa\	.	4d\yy	.	4f#\	4.aa\	4.aa\
8D\	.	8d\	.	8d/	.	.	.	.	.	.	.	.
8F#\	.	8f#\	.	8f#/	.	.	.	4D/yy	.	4d\	.	.
8D\J	.	8d\J	.	8dd/J	.	8ff#\	.	.	.	.	8dd\	8ff#\
=18	=18	=18	=18	=18	=18	=18	=18	=18	=18	=18	=18	=18
!LO:TX:t=P:mixedbeam:problem	!LO:DY:a	!LO:TX:t=P:mixedbeam:problem	!LO:DY:a	!	!	!	!	!	!	!	!	!
8A\L	p	8a\L	p	8cc#\L	.	8ee\L	.	4A/	.	4e\	8cc#\L	8ee\L
8A\	.	8a\	.	8dd\	.	8ff#\	.	.	.	.	8dd\	8ff#\
8AA/	.	8A/	.	8ee\	.	8gg\	.	4A/	.	4e\	8ee\	8gg\
8AA/J	.	8A/J	.	8cc#\J	.	8ee\J	.	.	.	.	8cc#\J	8ee\J
!	!	!	!	!	!	!	!	!	!	!LO:LB:g=original	!	!
=19	=19	=19	=19	=19	=19	=19	=19	=19	=19	=19	=19	=19
8D\L	.	8d\L	.	(16dd\KL	.	(16ff#\KL	.	4d\	.	4f#\	(16dd\KL	(16ff#\KL
.	.	.	.	8.ff#\J)	.	8.aa\J)	.	.	.	.	8.ff#\J)	8.aa\J)
8D\	.	8d\	.	.	.	.	.	.	.	.	.	.
8F#\	.	8f#\	.	(16f#/KL	.	(16dd\KL	.	4d\	.	4f#\	(16f#/KL	(16dd\KL
.	.	.	.	8.a/J)	.	8.ff#\J)	.	.	.	.	8.a/J)	8.ff#\J)
8F#\J	.	8f#\J	.	.	.	.	.	.	.	.	.	.
=20	=20	=20	=20	=20	=20	=20	=20	=20	=20	=20	=20	=20
!LO:TX:t=P:mixedbeam:problem	!LO:DY:a:t=for	!LO:TX:t=P:mixedbeam:problem	!	!	!	!	!	!	!	!	!	!
8G\L	f	8g\L	.	(16g/KL	.	(16ee\KL	.	4e\	.	4e\	(16g/KL	(16ee\KL
.	.	.	.	8.b/J)	.	8.gg\J)	.	.	.	.	8.b/J)	8.gg\J)
8G\	.	8g\	.	.	.	.	.	.	.	.	.	.
8A\	.	8a\	.	(16e/KL	.	(16cc#\KL	.	4A/	.	4e\	(16e/KL	(16cc#\KL
.	.	.	.	8.g/J)	.	8.ee\J)	.	.	.	.	8.g/J)	8.ee\J)
8AA/J	.	8A/J	.	.	.	.	.	.	.	.	.	.
=21	=21	=21	=21	=21	=21	=21	=21	=21	=21	=21	=21	=21
4D\	.	4d\	.	4f#/	.	4dd\	.	4F#/	.	4d\	4f#/	4dd\
4r	.	4r	.	4r	.	4r	.	4r	.	4r	4r	4r
=22	=22	=22	=22	=22	=22	=22	=22	=22	=22	=22	=22	=22
!LO:SIC:o=:v: caudy półnut z prawej strony	!	!LO:SIC:o=:v: caudy półnut z prawej strony	!	!	!LO:DY:a	!	!LO:DY:a	!LO:N:vis=00	!	!LO:N:vis=00	!LO:N:vis=00	!LO:N:vis=00
*2\right	*	*2\right	*	*	*	*	*	*	*	*	*	*
(<2d\	.	(2d\	.	2a/	f	(8ff#\L	f	0r	.	0r	0r	0r
.	.	.	.	.	.	8gg#X\	.	.	.	.	.	.
.	.	.	.	.	.	8aa\)	.	.	.	.	.	.
.	.	.	.	.	.	8ff#\J	.	.	.	.	.	.
=23	=23	=23	=23	=23	=23	=23	=23	=23	=23	=23	=23	=23
!	!	!	!	!	!	!	!LO:DY:a	!	!	!	!	!
4c#\)	.	4c#\)	.	4a/	.	8ee\L	p	.	.	.	.	.
.	.	.	.	.	.	8cc#\	.	.	.	.	.	.
4r	.	4r	.	4r	.	8b\	.	.	.	.	.	.
.	.	.	.	.	.	8cc#\J	.	.	.	.	.	.
=24	=24	=24	=24	=24	=24	=24	=24	=24	=24	=24	=24	=24
!	!	!	!LO:DY:a	!	!LO:DY:a	!	!LO:DY:a	!	!	!	!	!
(2G#X\	.	2G#X/	f	2e/	f	(8dd\L	f	.	.	.	.	.
.	.	.	.	.	.	8ee\	.	.	.	.	.	.
.	.	.	.	.	.	8ff#\)	.	.	.	.	.	.
.	.	.	.	.	.	8dd\J	.	.	.	.	.	.
=25	=25	=25	=25	=25	=25	=25	=25	=25	=25	=25	=25	=25
!	!	!	!	!	!	!	!LO:DY:a	!	!	!	!	!
4A\)	.	4A/	.	4e/	.	8cc#/L	p	.	.	.	.	.
.	.	.	.	.	.	8a/	.	.	.	.	.	.
4r	.	4r	.	4r	.	8g#X/	.	.	.	.	.	.
.	.	.	.	.	.	8a/J	.	.	.	.	.	.
=26	=26	=26	=26	=26	=26	=26	=26	=26	=26	=26	=26	=26
!	!	!	!	!	!	!	!	!LO:N:vis=00	!	!LO:N:vis=00	!LO:N:vis=00	!LO:N:vis=00
8A\L	.	8A\L	.	8cc#\L	.	8cc#\L	.	0r	.	0r	0r	0r
8B\	.	8B\	.	8dd\	.	8dd\	.	.	.	.	.	.
8c#\	.	8c#\	.	8ee\	.	8ee\	.	.	.	.	.	.
8A\J	.	8A\J	.	8cc#\J	.	8cc#\J	.	.	.	.	.	.
=27	=27	=27	=27	=27	=27	=27	=27	=27	=27	=27	=27	=27
8d\L	.	8d\L	.	8ff#\L	.	8ff#\L	.	.	.	.	.	.
8c#\	.	8c#\	.	8ee\	.	8ee\	.	.	.	.	.	.
8B\	.	8B\	.	8dd\	.	8dd\	.	.	.	.	.	.
8A\J	.	8A\J	.	8cc#\J	.	8cc#\J	.	.	.	.	.	.
!LO:LB:g=original	!	!	!	!	!	!	!	!	!	!	!	!
=28	=28	=28	=28	=28	=28	=28	=28	=28	=28	=28	=28	=28
8B\L	.	8B/L	.	8dd\L	.	8dd\L	.	.	.	.	.	.
8A\	.	8A/	.	8cc#\	.	8cc#\	.	.	.	.	.	.
!	!	!LO:SIC:o=:v:krzyżyk pod dźwiękiem	!	!	!	!	!	!	!	!	!	!
8G#X\	.	8G#X/	.	8b\	.	8b\	.	.	.	.	.	.
8F#\J	.	8F#/J	.	8a\J	.	8a\J	.	.	.	.	.	.
=29	=29	=29	=29	=29	=29	=29	=29	=29	=29	=29	=29	=29
*	*	*	*	*	*	*2\right	*	*	*	*	*	*
4E\	.	4E/	.	4ee\	.	[2ee\	.	.	.	.	.	.
4r	.	8r	.	8r	.	.	.	.	.	.	.	.
!	!	!	!LO:DY:a	!	!	!	!	!	!	!	!	!
.	.	8e\	p	8g#X/	.	.	.	.	.	.	.	.
=30	=30	=30	=30	=30	=30	=30	=30	=30	=30	=30	=30	=30
!LO:N:vis=00	!	!	!	!LO:SIC:s=8g#=v	!	!	!	!LO:N:vis=00	!	!LO:N:vis=00	!LO:N:vis=00	!LO:N:vis=00
0r	.	(8e\L	.	(8g/L	.	2ee\_	.	0r	.	0r	0r	0r
.	.	8f#\J)	.	8a/J)	.	.	.	.	.	.	.	.
.	.	8r	.	8r	.	.	.	.	.	.	.	.
.	.	8g#X\	.	8b\	.	.	.	.	.	.	.	.
!	!	!	!	!	!	!LO:LB:g=original	!	!	!	!	!	!
=31	=31	=31	=31	=31	=31	=31	=31	=31	=31	=31	=31	=31
!	!	!LO:SIC:s=8g#=v	!	!	!	!	!	!	!	!	!	!
.	.	(8g\L	.	(8b\L	.	2ee\_	.	.	.	.	.	.
.	.	8a\J)	.	8cc#\J)	.	.	.	.	.	.	.	.
.	.	8r	.	8r	.	.	.	.	.	.	.	.
!	!	!LO:SIC:s-8g#=v	!	!	!	!	!	!	!	!	!	!
.	.	8g\	.	8b\	.	.	.	.	.	.	.	.
!	!	!LO:LB:g=original	!	!	!	!	!	!	!	!	!	!
=32	=32	=32	=32	=32	=32	=32	=32	=32	=32	=32	=32	=32
.	.	8a\L	.	8cc#\L	.	2ee\_	.	.	.	.	.	.
.	.	8b\	.	8dd\	.	.	.	.	.	.	.	.
.	.	8cc#\	.	8ee\	.	.	.	.	.	.	.	.
.	.	8a\J	.	8cc#\J	.	.	.	.	.	.	.	.
!	!	!	!	!LO:LB:g=original	!	!	!	!	!	!	!	!
=33	=33	=33	=33	=33	=33	=33	=33	=33	=33	=33	=33	=33
.	.	4g#X\	.	4b\	.	2ee\_	.	.	.	.	.	.
.	.	8r	.	8r	.	.	.	.	.	.	.	.
.	.	8e\	.	8g#X/	.	.	.	.	.	.	.	.
=34	=34	=34	=34	=34	=34	=34	=34	=34	=34	=34	=34	=34
!LO:N:vis=00	!	!	!	!LO:SIC:s=8g#=v	!	!	!	!LO:N:vis=00	!	!LO:N:vis=00	!LO:N:vis=00	!LO:N:vis=00
0r	.	(8e\L	.	(8g/L	.	2ee\_	.	0r	.	0r	0r	0r
.	.	8f#\J)	.	8a/J)	.	.	.	.	.	.	.	.
.	.	8r	.	8r	.	.	.	.	.	.	.	.
.	.	8g#X\	.	8b\	.	.	.	.	.	.	.	.
=35	=35	=35	=35	=35	=35	=35	=35	=35	=35	=35	=35	=35
!	!	!LO:SIC:s=8g#=v	!	!	!	!LO:TX:a:t=P:problem:takty zapisane powtórką	!	!	!	!	!	!
.	.	(8g\L	.	(8b\L	.	2ee\_yy	.	.	.	.	.	.
.	.	8a\J)	.	8cc#\J)	.	.	.	.	.	.	.	.
.	.	8r	.	8r	.	.	.	.	.	.	.	.
!	!	!LO:SIC:s=8g#=v	!	!	!	!	!	!	!	!	!	!
.	.	8g\	.	8b\	.	.	.	.	.	.	.	.
=36	=36	=36	=36	=36	=36	=36	=36	=36	=36	=36	=36	=36
.	.	8a\L	.	8cc#\L	.	2ee\_yy	.	.	.	.	.	.
.	.	8b\	.	8dd\	.	.	.	.	.	.	.	.
.	.	8cc#\	.	8ee\	.	.	.	.	.	.	.	.
.	.	8a\J	.	8cc#\J	.	.	.	.	.	.	.	.
=37	=37	=37	=37	=37	=37	=37	=37	=37	=37	=37	=37	=37
.	.	4g#X\	.	4b\	.	4.ee\]	.	.	.	.	.	.
.	.	8r	.	8r	.	.	.	.	.	.	.	.
!	!	!	!	!	!LO:DY:a	!	!	!	!	!	!	!
.	.	8c#\	.	8c#/	f	8ee\	.	.	.	.	.	.
=38	=38	=38	=38	=38	=38	=38	=38	=38	=38	=38	=38	=38
!LO:N:vis=00	!	!	!LO:DY:a	!	!	!	!	!LO:N:vis=00	!	!LO:N:vis=00	!LO:N:vis=00	!LO:N:vis=00
0r	.	8d\L	f	8d/L	.	(8ff#\L	.	0r	.	0r	0r	0r
.	.	(8e\	.	8e/	.	8gg#X\	.	.	.	.	.	.
.	.	8f#\	.	8f#/	.	8aa\	.	.	.	.	.	.
.	.	8d\J)	.	(8d/J	.	8ff#\J)	.	.	.	.	.	.
=39	=39	=39	=39	=39	=39	=39	=39	=39	=39	=39	=39	=39
.	.	8c#\L	.	8c#/L	.	8ee\L	.	.	.	.	.	.
.	.	8B\	.	8B/	.	8dd\	.	.	.	.	.	.
.	.	8A\	.	8A/)	.	8cc#\	.	.	.	.	.	.
.	.	8c#\J	.	(8c#/J	.	8ee\J	.	.	.	.	.	.
=40	=40	=40	=40	=40	=40	=40	=40	=40	=40	=40	=40	=40
.	.	(8d\L	.	8d/L	.	8ff#\L	.	.	.	.	.	.
.	.	8e\	.	8e/	.	8gg#X\	.	.	.	.	.	.
.	.	8f#\)	.	8f#/)	.	8aa\	.	.	.	.	.	.
.	.	8d\J	.	8d/J	.	8ff#\J	.	.	.	.	.	.
=41	=41	=41	=41	=41	=41	=41	=41	=41	=41	=41	=41	=41
.	.	8c#\L	.	8c#/L	.	8ee\L	.	.	.	.	.	.
.	.	8B\	.	8B/	.	8dd\	.	.	.	.	.	.
.	.	8A\	.	8A/	.	8cc#\	.	.	.	.	.	.
.	.	8c#\J	.	(8c#/J	.	8ee\J	.	.	.	.	.	.
=42	=42	=42	=42	=42	=42	=42	=42	=42	=42	=42	=42	=42
!LO:N:vis=00	!	!	!	!	!	!	!	!LO:N:vis=00	!	!LO:N:vis=00	!LO:N:vis=00	!LO:N:vis=00
0r	.	(8d\L	.	8d/L	.	(8ff#\L	.	0r	.	0r	0r	0r
.	.	8e\	.	8e/	.	8gg#X\	.	.	.	.	.	.
.	.	8f#\)	.	8f#/)	.	8aa\)	.	.	.	.	.	.
.	.	8d\J	.	8d/J	.	8ff#\J	.	.	.	.	.	.
=43	=43	=43	=43	=43	=43	=43	=43	=43	=43	=43	=43	=43
.	.	(4c#/	.	4c#/	.	(8.ee\L	.	.	.	.	.	.
.	.	.	.	.	.	16ff#\Jk)	.	.	.	.	.	.
.	.	4B/	.	4B/	.	(16dd\KL	.	.	.	.	.	.
.	.	.	.	.	.	8.ee\J)	.	.	.	.	.	.
=44	=44	=44	=44	=44	=44	=44	=44	=44	=44	=44	=44	=44
.	.	4A/	.	4A/	.	(8.cc#\L	.	.	.	.	.	.
.	.	.	.	.	.	16dd\Jk)	.	.	.	.	.	.
.	.	4G#X/)	.	4G#X/	.	(8.b\L	.	.	.	.	.	.
.	.	.	.	.	.	16cc#\Jk)	.	.	.	.	.	.
=45	=45	=45	=45	=45	=45	=45	=45	=45	=45	=45	=45	=45
!	!	!	!LO:DY:a	!	!	!	!	!	!	!	!	!
.	.	4.A/	f	4.A/	.	4.a/	.	.	.	.	.	.
.	.	8c#\	.	8c#/	.	8ee\	.	.	.	.	.	.
!	!	!LO:LB:g=original	!	!LO:LB:g=original	!	!	!	!	!	!	!LO:LB:g=original	!LO:LB:g=original
=46	=46	=46	=46	=46	=46	=46	=46	=46	=46	=46	=46	=46
!LO:N:vis=00	!	!	!LO:DY:a	!	!	!	!LO:DY:a	!LO:N:vis=00	!	!LO:N:vis=00	!LO:N:vis=00	!LO:N:vis=00
0r	.	8d\L	p	8d/L	.	8ff#\L	f	0r	.	0r	0r	0r
.	.	(8e\	.	8e/	.	8gg#X\	.	.	.	.	.	.
.	.	8f#\	.	8f#/	.	8aa\	.	.	.	.	.	.
.	.	8d\J)	.	(8d/J	.	8ff#\J	.	.	.	.	.	.
!	!	!	!	!	!	!LO:LB:g=original	!	!	!	!	!	!
=47	=47	=47	=47	=47	=47	=47	=47	=47	=47	=47	=47	=47
!	!	!	!	!	!	!	!LO:DY:a	!	!	!	!	!
.	.	8c#\L	.	8c#/L	.	8ee\L	p	.	.	.	.	.
.	.	8B\	.	8B/)	.	8dd\	.	.	.	.	.	.
.	.	8A\	.	8A/	.	8cc#\	.	.	.	.	.	.
.	.	8c#\J	.	(8c#/J	.	8ee\J	.	.	.	.	.	.
=48	=48	=48	=48	=48	=48	=48	=48	=48	=48	=48	=48	=48
!	!	!	!LO:DY:a	!	!	!	!LO:DY:a	!	!	!	!	!
.	.	(8d\L	f	8d/L	.	8ff#\L	f	.	.	.	.	.
.	.	8e\	.	8e/)	.	8gg#X\	.	.	.	.	.	.
.	.	8f#\	.	8f#/	.	8aa\	.	.	.	.	.	.
.	.	8d\J)	.	(8d/J	.	8ff#\J	.	.	.	.	.	.
=49	=49	=49	=49	=49	=49	=49	=49	=49	=49	=49	=49	=49
.	.	8c#\L	.	8c#/L)	.	8ee\L	.	.	.	.	.	.
.	.	8B\	.	8B/	.	8dd\	.	.	.	.	.	.
.	.	8A\	.	8A/	.	8cc#\	.	.	.	.	.	.
.	.	8c#\J	.	(8c#/J	.	8ee\J	.	.	.	.	.	.
=50	=50	=50	=50	=50	=50	=50	=50	=50	=50	=50	=50	=50
!LO:N:vis=00	!	!	!	!	!	!	!	!LO:N:vis=00	!	!LO:N:vis=00	!LO:N:vis=00	!LO:N:vis=00
0r	.	(8d\L	.	8d/L)	.	8ff#\L	.	0r	.	0r	0r	0r
.	.	8e\	.	8e/	.	8gg#X\	.	.	.	.	.	.
.	.	8f#\)	.	8f#/	.	8aa\	.	.	.	.	.	.
.	.	8d\J	.	8d/J	.	8ff#\J	.	.	.	.	.	.
=51	=51	=51	=51	=51	=51	=51	=51	=51	=51	=51	=51	=51
.	.	(4c#/	.	4c#/	.	(8.ee\L	.	.	.	.	.	.
.	.	.	.	.	.	16ff#\Jk)	.	.	.	.	.	.
.	.	4B/	.	4B/	.	(8.dd\L	.	.	.	.	.	.
.	.	.	.	.	.	16ee\Jk)	.	.	.	.	.	.
=52	=52	=52	=52	=52	=52	=52	=52	=52	=52	=52	=52	=52
.	.	4A/	.	4A/	.	(8.cc#\L	.	.	.	.	.	.
.	.	.	.	.	.	16dd\Jk)	.	.	.	.	.	.
.	.	4G#X/	.	4G#X/	.	(8.b\L	.	.	.	.	.	.
.	.	.	.	.	.	16cc#\Jk)	.	.	.	.	.	.
=53	=53	=53	=53	=53	=53	=53	=53	=53	=53	=53	=53	=53
!	!	!	!	!LO:TX:a:t=a	!	!	!	!	!	!	!	!
.	.	4A/)	.	4A/	.	4a/	.	.	.	.	.	.
.	.	4r	.	4r	.	4r	.	.	.	.	.	.
=54	=54	=54	=54	=54	=54	=54	=54	=54	=54	=54	=54	=54
!LO:N:vis=0	!	!	!	!	!	!	!	!LO:N:vis=0	!	!LO:N:vis=0	!LO:N:vis=0	!LO:N:vis=0
1r;	.	4A/	.	4A/	.	4a/	.	1r;	.	1r;	1r	1r
.	.	4r	.	4r	.	4r	.	.	.	.	.	.
=55	=55	=55	=55	=55	=55	=55	=55	=55	=55	=55	=55	=55
.	.	4A/	.	4A/	.	4a;/	.	.	.	.	.	.
.	.	4r;	.	4r;	.	4r	.	.	.	.	.	.
=56	=56	=56	=56	=56	=56	=56	=56	=56	=56	=56	=56	=56
!LO:N:vis=00	!	!	!LO:DY:a	!	!	!	!	!LO:N:vis=00	!	!LO:N:vis=00	!LO:N:vis=00	!LO:N:vis=00
0r	.	8d\L	f	8d/L	.	8.ff#\L	.	0r	.	0r	0r	0r
.	.	8A\	.	8A/	.	.	.	.	.	.	.	.
.	.	.	.	.	.	16gg\Jk	.	.	.	.	.	.
.	.	.	.	.	.	8qqgg/	.	.	.	.	.	.
.	.	8e\	.	8e/	.	8gg\L	.	.	.	.	.	.
.	.	8A\J	.	8A/J	.	16ff#\L	.	.	.	.	.	.
.	.	.	.	.	.	16gg\JJ	.	.	.	.	.	.
=57	=57	=57	=57	=57	=57	=57	=57	=57	=57	=57	=57	=57
.	.	8f#\L	.	8f#/L	.	4.aa\	.	.	.	.	.	.
.	.	8d\	.	8d/	.	.	.	.	.	.	.	.
.	.	8f#\	.	8f#/	.	.	.	.	.	.	.	.
.	.	8d\J	.	8d/J	.	8aa\	.	.	.	.	.	.
=58	=58	=58	=58	=58	=58	=58	=58	=58	=58	=58	=58	=58
!	!	!	!	!	!	!	!LO:DY:a	!	!	!	!	!
.	.	8g\L	.	8g/L	.	4.bb\	f	.	.	.	.	.
.	.	8d\	.	8d/	.	.	.	.	.	.	.	.
.	.	8g\	.	8g/	.	.	.	.	.	.	.	.
.	.	8d\J	.	8d/J	.	16ccc#\LL	.	.	.	.	.	.
.	.	.	.	.	.	16ddd\JJ	.	.	.	.	.	.
=59	=59	=59	=59	=59	=59	=59	=59	=59	=59	=59	=59	=59
!	!	!	!	!	!	!	!LO:DY:a	!	!	!	!	!
.	.	8f#\L	.	8f#/L	.	4.aa\	p	.	.	.	.	.
.	.	8d\	.	8d/	.	.	.	.	.	.	.	.
.	.	8f#\	.	8f#/	.	.	.	.	.	.	.	.
.	.	8d\J	.	8d/J	.	8aa\	.	.	.	.	.	.
!	!	!	!	!LO:LB:g=original	!	!LO:LB:g=original	!	!	!	!	!	!
=60	=60	=60	=60	=60	=60	=60	=60	=60	=60	=60	=60	=60
!LO:N:vis=00	!	!	!	!	!	!	!LO:DY:a	!LO:N:vis=00	!	!LO:N:vis=00	!LO:N:vis=00	!LO:N:vis=00
0r	.	8g\L	.	8g/L	.	4.bb\	f	0r	.	0r	0r	0r
.	.	8d\	.	8d/	.	.	.	.	.	.	.	.
.	.	8g\	.	8g/	.	.	.	.	.	.	.	.
.	.	8d\J	.	8d/J	.	16ccc#\LL	.	.	.	.	.	.
.	.	.	.	.	.	16ddd\JJ	.	.	.	.	.	.
=61	=61	=61	=61	=61	=61	=61	=61	=61	=61	=61	=61	=61
!	!	!	!	!	!	!	!LO:DY:a	!	!	!	!	!
.	.	8f#\L	.	8f#/L	.	4.aa\	p	.	.	.	.	.
.	.	8d\	.	8d/	.	.	.	.	.	.	.	.
.	.	8f#\	.	8f#/	.	.	.	.	.	.	.	.
.	.	8d\J	.	8d/J	.	8dd\	.	.	.	.	.	.
!	!	!LO:LB:g=original	!	!	!	!	!	!	!	!	!	!
=62	=62	=62	=62	=62	=62	=62	=62	=62	=62	=62	=62	=62
!	!	!	!	!	!	!	!LO:DY:a	!	!	!	!	!
.	.	8g\L	.	8g/L	.	4cc#'\	f	.	.	.	.	.
.	.	8A\	.	8A/	.	.	.	.	.	.	.	.
.	.	8f#\	.	8f#/	.	4dd'\	.	.	.	.	.	.
.	.	8A\J	.	8A/J	.	.	.	.	.	.	.	.
=63	=63	=63	=63	=63	=63	=63	=63	=63	=63	=63	=63	=63
.	.	8c#\L	.	8c#/L	.	4gg'\	.	.	.	.	.	.
.	.	8A\	.	8A/	.	.	.	.	.	.	.	.
.	.	8d\	.	8d/	.	4ff#'\	.	.	.	.	.	.
.	.	8A\J	.	8A/J	.	.	.	.	.	.	.	.
=64	=64	=64	=64	=64	=64	=64	=64	=64	=64	=64	=64	=64
!LO:N:vis=0	!	!	!	!	!	!	!	!LO:N:vis=0	!	!LO:N:vis=0	!LO:N:vis=0	!LO:N:vis=0
1r	.	8g\L	.	8g/L	.	4cc#\	.	1r	.	1r	1r	1r
.	.	8A\	.	8A/	.	.	.	.	.	.	.	.
.	.	8f#\	.	8f#/	.	4dd\	.	.	.	.	.	.
.	.	8A\J	.	8A/J	.	.	.	.	.	.	.	.
=65	=65	=65	=65	=65	=65	=65	=65	=65	=65	=65	=65	=65
.	.	8e\L	.	8e/L	.	(8ee\L	.	.	.	.	.	.
.	.	8A\	.	8A/	.	8cc#\J)	.	.	.	.	.	.
.	.	8c#\	.	8c#/	.	4a/	.	.	.	.	.	.
.	.	8A\J	.	8A/J	.	.	.	.	.	.	.	.
=66	=66	=66	=66	=66	=66	=66	=66	=66	=66	=66	=66	=66
!	!	!	!LO:DY:a	!	!	!	!LO:DY:a	!	!	!	!	!
8D/L	.	8d\L	f	8d/L	.	8.ff#\L	f	4F#/	.	4d\	8.ff#\L	8.ff#\L
8AA/	.	8A\	.	8A/	.	.	.	.	.	.	.	.
.	.	.	.	.	.	16gg\Jk	.	.	.	.	16gg\Jk	16gg\Jk
.	.	.	.	.	.	8qqgg/	.	.	.	.	8qqgg/	8qqgg/
8E/	.	8e\	.	8e/	.	8gg\L	.	4A/	.	4e\	8gg\L	8gg\L
8AA/J	.	8A\J	.	8A/J	.	16ff#\L	.	.	.	.	16ff#\L	16ff#\L
.	.	.	.	.	.	16gg\JJ	.	.	.	.	16gg\JJ	16gg\JJ
=67	=67	=67	=67	=67	=67	=67	=67	=67	=67	=67	=67	=67
!	!	!	!	!	!	!	!LO:DY:a	!	!	!	!	!
8F#\L	.	8f#\L	.	8f#/L	.	4.aa\	p	4d\	.	4f#\	4.aa\	4.aa\
8D\	.	8d\	.	8d/	.	.	.	.	.	.	.	.
8F#\	.	8f#\	.	8f#/	.	.	.	4D/	.	4d\	.	.
8D\J	.	8d\J	.	8d/J	.	8aa\	.	.	.	.	8aa\	8aa\
!	!	!	!	!	!	!	!	!LO:LB:g=original	!	!	!	!
=68	=68	=68	=68	=68	=68	=68	=68	=68	=68	=68	=68	=68
!	!	!	!	!	!	!	!LO:DY:a	!	!	!	!	!
8G\L	.	8g\L	.	8g/L	.	4.bb\	f	2D/	.	2d\	4.bb\	4.bb\
8D\	.	8d\	.	8d/	.	.	.	.	.	.	.	.
8G\	.	8g\	.	8g/	.	.	.	.	.	.	.	.
8D\J	.	8d\J	.	8d/J	.	16ccc#\LL	.	.	.	.	16ccc#\LL	16ccc#\LL
.	.	.	.	.	.	16ddd\JJ	.	.	.	.	16ddd\JJ	16ddd\JJ
=69	=69	=69	=69	=69	=69	=69	=69	=69	=69	=69	=69	=69
!LO:TX:a:t=P:problem:takty zapisane powtórką	!	!LO:TX:a:t=P:problem:takty zapisane powtórką	!	!	!	!	!LO:DY:a	!	!	!	!	!
8F#\Lyy	.	8f#\Lyy	.	8f#/L	.	4.aa\	p	4d\	.	4f#\	4.aa\	4.aa\
8D\yy	.	8d\yy	.	8d/	.	.	.	.	.	.	.	.
8F#\yy	.	8f#\yy	.	8f#/	.	.	.	4D/	.	4d\	.	.
8D\Jyy	.	8d\Jyy	.	8d/J	.	8aa\	.	.	.	.	8aa\	8aa\
=70	=70	=70	=70	=70	=70	=70	=70	=70	=70	=70	=70	=70
!	!	!	!	!	!	!	!	!LO:TX:a:t=P:problem:takty zapisane powtórką	!	!	!	!
8G\Lyy	.	8g\Lyy	.	8g/L	.	4.bb\	.	2D/yy	.	2d\	4.bb\	4.bb\
8D\yy	.	8d\yy	.	8d/	.	.	.	.	.	.	.	.
8G\yy	.	8g\yy	.	8g/	.	.	.	.	.	.	.	.
8D\Jyy	.	8d\Jyy	.	8d/J	.	16ccc#\LL	.	.	.	.	16ccc#\LL	16ccc#\LL
.	.	.	.	.	.	16ddd\JJ	.	.	.	.	16ddd\JJ	16ddd\JJ
=71	=71	=71	=71	=71	=71	=71	=71	=71	=71	=71	=71	=71
!	!	!LO:SIC:o=:v:brakujący takt	!	!	!	!	!	!	!	!	!	!
8F#\L	.	2ryy	.	8f#/L	.	4.aa\	.	4d\yy	.	4f#\	4.aa\	4.aa\
8D\	.	.	.	8d/	.	.	.	.	.	.	.	.
8F#\	.	.	.	8f#/	.	.	.	4D/yy	.	4d\	.	.
8D\J	.	.	.	8dd/J	.	8ff#\	.	.	.	.	8dd\	8ff#\
=72	=72	=72	=72	=72	=72	=72	=72	=72	=72	=72	=72	=72
!LO:TX:t=P:mixedbeam:problem	!	!LO:TX:t=P:mixedbeam:problem	!	!	!	!	!	!	!	!	!	!
8A\L	.	8a\L	.	8cc#\L	.	8ee\L	.	4A/	.	4e\	8cc#\L	8ee\L
8A\	.	8a\	.	8dd\	.	8ff#\	.	.	.	.	8dd\	8ff#\
8AA/	.	8A/	.	8ee\	.	8gg\	.	4A/	.	4e\	8ee\	8gg\
8AA/J	.	8A/J	.	8cc#\J	.	8ee\J	.	.	.	.	8cc#\J	8ee\J
=73	=73	=73	=73	=73	=73	=73	=73	=73	=73	=73	=73	=73
8D\L	.	8d\L	.	(16dd\KL	.	(16ff#\KL	.	4d\	.	4f#\	(16dd\KL	(16ff#\KL
.	.	.	.	8.ff#\J)	.	8.aa\J)	.	.	.	.	8.ff#\J)	8.aa\J)
8D\	.	8d\	.	.	.	.	.	.	.	.	.	.
8F#\	.	8f#\	.	(16f#/KL	.	(16dd\KL	.	4d\	.	4f#\	(16f#/KL	(16dd\KL
.	.	.	.	8.a/J)	.	8.ff#\J)	.	.	.	.	8.a/J)	8.ff#\J)
8F#\J	.	8f#\J	.	.	.	.	.	.	.	.	.	.
!	!	!	!	!LO:LB:g=original	!	!LO:LB:g=original	!	!	!	!	!	!
=74	=74	=74	=74	=74	=74	=74	=74	=74	=74	=74	=74	=74
!LO:TX:t=P:mixedbeam:problem	!	!LO:TX:t=P:mixedbeam:problem	!	!	!	!	!	!	!	!	!	!
8G\L	.	8g\L	.	(16g/KL	.	(16ee\KL	.	4e\	.	4e\	(16g/KL	(16ee\KL
.	.	.	.	8.b/J)	.	8.gg\J)	.	.	.	.	8.b/J)	8.gg\J)
8G\	.	8g\	.	.	.	.	.	.	.	.	.	.
8A\	.	8a\	.	(16e/KL	.	(16cc#\KL	.	4A/	.	4e\	(16e/KL	(16cc#\KL
.	.	.	.	8.g/J)	.	8.ee\J)	.	.	.	.	8.g/J)	8.ee\J)
8AA/J	.	8A/J	.	.	.	.	.	.	.	.	.	.
=75	=75	=75	=75	=75	=75	=75	=75	=75	=75	=75	=75	=75
4D\	.	4d\	.	4f#/	.	4dd\	.	4F#/	.	4d\	4f#/	4dd\
4r	.	4r	.	4r	.	4r	.	4r	.	4r	4r	4r
=76	=76	=76	=76	=76	=76	=76	=76	=76	=76	=76	=76	=76
*	*	*k[fncnb-]	*	*k[fncnb-]	*	*k[fncnb-]	*	*	*	*	*	*
!LO:N:vis=00	!	!i	!LO:DY:a	!	!	!	!	!LO:N:vis=00	!	!LO:N:vis=00	!LO:N:vis=00	!LO:N:vis=00
0r	.	8d\L	p	8d/L	.	4aa\	.	0r	.	0r	0r	0r
.	.	8a\	.	8a/	.	.	.	.	.	.	.	.
.	.	8f\	.	8f/	.	4aa\	.	.	.	.	.	.
.	.	8a\J	.	8a/J	.	.	.	.	.	.	.	.
=77	=77	=77	=77	=77	=77	=77	=77	=77	=77	=77	=77	=77
.	.	8d\L	.	8d/L	.	4.aa\	.	.	.	.	.	.
.	.	8a\	.	8a/	.	.	.	.	.	.	.	.
.	.	8f\	.	8f/	.	.	.	.	.	.	.	.
.	.	8a\J	.	8a/J	.	8ddd\	.	.	.	.	.	.
=78	=78	=78	=78	=78	=78	=78	=78	=78	=78	=78	=78	=78
.	.	8e\L	.	8e/L	.	4aa\	.	.	.	.	.	.
.	.	8a\	.	8a/	.	.	.	.	.	.	.	.
.	.	8g\	.	8g/	.	4bb-X\	.	.	.	.	.	.
.	.	8a\J	.	8a/J	.	.	.	.	.	.	.	.
=79	=79	=79	=79	=79	=79	=79	=79	=79	=79	=79	=79	=79
!	!	!LO:TX:a:t=P:problem:takty zapisane powtórką	!	!LO:TX:a:t=P:problem:takty zapisane powtórką	!	!	!	!	!	!	!	!
.	.	8e\Lyy	.	8e/Lyy	.	4gg\	.	.	.	.	.	.
.	.	8a\yy	.	8a/yy	.	.	.	.	.	.	.	.
.	.	8g\yy	.	8g/yy	.	4r	.	.	.	.	.	.
.	.	8a\Jyy	.	8a/Jyy	.	.	.	.	.	.	.	.
!	!	!LO:LB:g=original	!	!	!	!	!	!	!	!	!	!
=80	=80	=80	=80	=80	=80	=80	=80	=80	=80	=80	=80	=80
!LO:N:vis=00	!	!	!	!	!	!	!	!LO:N:vis=00	!	!LO:N:vis=00	!LO:N:vis=00	!LO:N:vis=00
0r	.	8c#X\L	.	8c#X/L	.	4gg\	.	0r	.	0r	0r	0r
.	.	8a\	.	8a/	.	.	.	.	.	.	.	.
.	.	8e\	.	8e/	.	4gg\	.	.	.	.	.	.
.	.	8a\J	.	8a/J	.	.	.	.	.	.	.	.
=81	=81	=81	=81	=81	=81	=81	=81	=81	=81	=81	=81	=81
.	.	8c\L	.	8c/L	.	4.gg\	.	.	.	.	.	.
.	.	8a\	.	8a/	.	.	.	.	.	.	.	.
.	.	8e\	.	8e/	.	.	.	.	.	.	.	.
.	.	8a\J	.	8a/J	.	8eee\	.	.	.	.	.	.
=82	=82	=82	=82	=82	=82	=82	=82	=82	=82	=82	=82	=82
.	.	8d\L	.	8d/L	.	4gg\	.	.	.	.	.	.
.	.	8a\	.	8a/	.	.	.	.	.	.	.	.
.	.	8f\	.	8f/	.	4aa\	.	.	.	.	.	.
.	.	8a\J	.	8a/J	.	.	.	.	.	.	.	.
=83	=83	=83	=83	=83	=83	=83	=83	=83	=83	=83	=83	=83
!	!	!LO:TX:a:t=P:problem:takty zapisane powtórką	!	!LO:TX:a:t=P:problem:takty zapisane powtórką	!	!	!	!	!	!	!	!
.	.	8d\Lyy	.	8d/Lyy	.	4ff\	.	.	.	.	.	.
.	.	8a\yy	.	8a/yy	.	.	.	.	.	.	.	.
.	.	8f\yy	.	8f/yy	.	4r	.	.	.	.	.	.
.	.	8a\Jyy	.	8a/Jyy	.	.	.	.	.	.	.	.
=84	=84	=84	=84	=84	=84	=84	=84	=84	=84	=84	=84	=84
!LO:N:vis=00	!	!	!	!	!	!	!LO:DY:a	!LO:N:vis=00	!	!LO:N:vis=00	!LO:N:vis=00	!LO:N:vis=00
0r	.	8B-X\L	.	8B-X/L	.	4aa\	f	0r	.	0r	0r	0r
.	.	8d\	.	8d/	.	.	.	.	.	.	.	.
.	.	8B-\	.	8B-/	.	4aa\	.	.	.	.	.	.
.	.	8d\J	.	8d/J	.	.	.	.	.	.	.	.
=85	=85	=85	=85	=85	=85	=85	=85	=85	=85	=85	=85	=85
.	.	8B-\L	.	8B-/L	.	4.ddd\	.	.	.	.	.	.
.	.	8d\	.	8d/	.	.	.	.	.	.	.	.
.	.	8B-\	.	8B-/	.	.	.	.	.	.	.	.
.	.	8d\J	.	8d/J	.	8bb-\	.	.	.	.	.	.
=86	=86	=86	=86	=86	=86	=86	=86	=86	=86	=86	=86	=86
.	.	8A\L	.	8A/L	.	(8bb-\L	.	.	.	.	.	.
.	.	8e\	.	8e/	.	8aa\)	.	.	.	.	.	.
.	.	8c#X\	.	8c#X/	.	(8aa\	.	.	.	.	.	.
.	.	8e\J	.	8e/J	.	8gg#X\J)	.	.	.	.	.	.
=87	=87	=87	=87	=87	=87	=87	=87	=87	=87	=87	=87	=87
!	!	!	!	!LO:TX:a:t=P:problem:takty zapisane powtórką	!	!	!	!	!	!	!	!
.	.	8A\L	.	8A/Lyy	.	4aa\	.	.	.	.	.	.
.	.	8e\	.	8e/yy	.	.	.	.	.	.	.	.
!	!	!LO:SIC:s=8c#=v	!	!	!	!	!	!	!	!	!	!
.	.	8c\	.	8c#X/yy	.	4r	.	.	.	.	.	.
.	.	8e\J	.	8e/Jyy	.	.	.	.	.	.	.	.
=88	=88	=88	=88	=88	=88	=88	=88	=88	=88	=88	=88	=88
!LO:N:vis=00	!	!	!	!	!	!LO:TX:a:t=P:problem:takty zapisane powtórką	!LO:DY:a	!	!LO:N:vis=00	!LO:N:vis=00	!LO:N:vis=00	!LO:N:vis=00
0r	.	8B-X\L	.	8B-X/L	.	4aa\yy	f	0r	.	0r	0r	0r
.	.	8d\	.	8d/	.	.	.	.	.	.	.	.
.	.	8B-\	.	8B-/	.	4aa\yy	.	.	.	.	.	.
.	.	8d\J	.	8d/J	.	.	.	.	.	.	.	.
=89	=89	=89	=89	=89	=89	=89	=89	=89	=89	=89	=89	=89
!	!	!LO:TX:a:t=P:problem:takty zapisane powtórką	!	!	!	!	!	!	!	!	!	!
.	.	8B-X\Lyy	.	8B-/L	.	4.ddd\yy	.	.	.	.	.	.
.	.	8d\yy	.	8d/	.	.	.	.	.	.	.	.
.	.	8B-\yy	.	8B-/	.	.	.	.	.	.	.	.
.	.	8d\Jyy	.	8d/J	.	8bb-\yy	.	.	.	.	.	.
!	!	!	!	!LO:LB:g=original	!	!	!	!	!	!	!	!
=90	=90	=90	=90	=90	=90	=90	=90	=90	=90	=90	=90	=90
.	.	4A/	.	8A/L	.	(8bb-\Lyy	.	.	.	.	.	.
.	.	.	.	8e/	.	8aa\)yy	.	.	.	.	.	.
.	.	4r	.	8c#X/	.	(8aa\yy	.	.	.	.	.	.
.	.	.	.	8e/J	.	8gg#X\J)yy	.	.	.	.	.	.
=91	=91	=91	=91	=91	=91	=91	=91	=91	=91	=91	=91	=91
!	!	!LO:TX:a:t=2	!	!	!	!	!	!	!	!	!	!
!	!	!LO:N:vis=0	!	!	!	!	!	!	!	!	!	!
.	.	1r	.	8A/L	.	4aa\yy	.	.	.	.	.	.
.	.	.	.	8e/	.	.	.	.	.	.	.	.
!	!	!	!	!LO:SIC:s=8c#=v	!	!	!	!	!	!	!	!
.	.	.	.	8c/	.	4ryy	.	.	.	.	.	.
.	.	.	.	8e/J	.	.	.	.	.	.	.	.
!	!	!	!	!	!	!LO:LB:g=original	!	!	!	!	!	!
=92	=92	=92	=92	=92	=92	=92	=92	=92	=92	=92	=92	=92
!LO:N:vis=00	!	!	!	!LO:SIC:o=:v:brakujący takt	!	!	!	!	!LO:N:vis=00	!LO:N:vis=00	!LO:N:vis=00	!LO:N:vis=00
0r	.	.	.	2ryy	.	4.aa\	.	0r	.	0r	0r	0r
.	.	.	.	.	.	8gg\	.	.	.	.	.	.
=93	=93	=93	=93	=93	=93	=93	=93	=93	=93	=93	=93	=93
.	.	2ryy	.	8A/L	.	4ffu\	.	.	.	.	.	.
.	.	.	.	8f/	.	.	.	.	.	.	.	.
.	.	.	.	8d/	.	8ee\L	.	.	.	.	.	.
.	.	.	.	8f/J	.	8dd\J	.	.	.	.	.	.
=94	=94	=94	=94	=94	=94	=94	=94	=94	=94	=94	=94	=94
.	.	4.a\	.	8A/L	.	4.cc#X\	.	.	.	.	.	.
.	.	.	.	8g/	.	.	.	.	.	.	.	.
.	.	.	.	8e/	.	.	.	.	.	.	.	.
!	!	!	!LO:DY:a	!	!	!	!	!	!	!	!	!
.	.	8g\	p	8g/J	.	8ee\	.	.	.	.	.	.
=95	=95	=95	=95	=95	=95	=95	=95	=95	=95	=95	=95	=95
.	.	4fu\	.	8A/L	.	4dd\	.	.	.	.	.	.
.	.	.	.	8f/	.	.	.	.	.	.	.	.
.	.	8e\L	.	8d/	.	4r	.	.	.	.	.	.
.	.	8d\J	.	8f/J	.	.	.	.	.	.	.	.
=96	=96	=96	=96	=96	=96	=96	=96	=96	=96	=96	=96	=96
!LO:N:vis=00	!	!	!	!	!	!	!	!LO:N:vis=00	!	!LO:N:vis=00	!LO:N:vis=00	!LO:N:vis=00
0r	.	4.c#X\	.	8A/L	.	4.aa\	.	0r	.	0r	0r	0r
.	.	.	.	8e/	.	.	.	.	.	.	.	.
.	.	.	.	8c#X/	.	.	.	.	.	.	.	.
.	.	8e\	.	8e/J	.	8gg\	.	.	.	.	.	.
=97	=97	=97	=97	=97	=97	=97	=97	=97	=97	=97	=97	=97
.	.	4d\	.	8A/L	.	4ffu\	.	.	.	.	.	.
.	.	.	.	8f/	.	.	.	.	.	.	.	.
.	.	4r	.	8d/	.	8ee\L	.	.	.	.	.	.
.	.	.	.	8f/J	.	8dd\J	.	.	.	.	.	.
=98	=98	=98	=98	=98	=98	=98	=98	=98	=98	=98	=98	=98
.	.	4.a\	.	8A/L	.	4.cc#X\	.	.	.	.	.	.
.	.	.	.	8g/	.	.	.	.	.	.	.	.
.	.	.	.	8e/	.	.	.	.	.	.	.	.
.	.	8g\	.	8g/J	.	8ee\	.	.	.	.	.	.
!	!	!LO:LB:g=original	!	!	!	!	!	!	!	!	!	!
=99	=99	=99	=99	=99	=99	=99	=99	=99	=99	=99	=99	=99
.	.	4fu\	.	8A/L	.	4dd\	.	.	.	.	.	.
.	.	.	.	8f/	.	.	.	.	.	.	.	.
.	.	8e\L	.	8d/	.	4r	.	.	.	.	.	.
.	.	8f\J	.	8f/J	.	.	.	.	.	.	.	.
=100	=100	=100	=100	=100	=100	=100	=100	=100	=100	=100	=100	=100
!LO:N:vis=00	!	!	!	!	!	!	!	!LO:N:vis=00	!	!LO:N:vis=00	!LO:N:vis=00	!LO:N:vis=00
0r	.	8g\L	.	8g/L	.	8bb-\L	.	0r	.	0r	0r	0r
.	.	8f\	.	8f/	.	8aa-X\	.	.	.	.	.	.
.	.	8g\	.	8g/	.	8bb-\	.	.	.	.	.	.
.	.	8e\J	.	8e/J	.	8gg\J	.	.	.	.	.	.
=101	=101	=101	=101	=101	=101	=101	=101	=101	=101	=101	=101	=101
.	.	8d\L	.	8d/L	.	4ff\	.	.	.	.	.	.
.	.	8e\	.	8e/	.	.	.	.	.	.	.	.
.	.	8f\	.	8f/	.	4r	.	.	.	.	.	.
.	.	8d\J	.	8d/J	.	.	.	.	.	.	.	.
=102	=102	=102	=102	=102	=102	=102	=102	=102	=102	=102	=102	=102
!	!	!LO:TX:a:t=P:problem:takty zapisane powtórką	!	!LO:TX:a:t=P:problem:takty zapisane powtórką	!	!	!	!	!	!	!	!
.	.	8g\Lyy	.	8g/Lyy	.	8bb-\L	.	.	.	.	.	.
.	.	8f\yy	.	8f/yy	.	8aa\	.	.	.	.	.	.
.	.	8g\yy	.	8g/yy	.	8bb-\	.	.	.	.	.	.
.	.	8e\Jyy	.	8e/Jyy	.	8gg\J	.	.	.	.	.	.
=103	=103	=103	=103	=103	=103	=103	=103	=103	=103	=103	=103	=103
.	.	8d\Lyy	.	8d/Lyy	.	4ff\	.	.	.	.	.	.
.	.	8e\yy	.	8e/yy	.	.	.	.	.	.	.	.
.	.	8f\yy	.	8f/yy	.	4r	.	.	.	.	.	.
.	.	8d\Jyy	.	8d/Jyy	.	.	.	.	.	.	.	.
=104	=104	=104	=104	=104	=104	=104	=104	=104	=104	=104	=104	=104
!LO:N:vis=00	!	!	!	!	!	!	!	!LO:N:vis=00	!	!LO:N:vis=00	!LO:N:vis=00	!LO:N:vis=00
0r	.	8g\L	.	8g/L	.	8bb-\L	.	0r	.	0r	0r	0r
.	.	8f\	.	8f/	.	8aa\	.	.	.	.	.	.
.	.	8g\	.	8g/	.	8bb-\	.	.	.	.	.	.
.	.	8e\J	.	8e/J	.	8gg\J	.	.	.	.	.	.
=105	=105	=105	=105	=105	=105	=105	=105	=105	=105	=105	=105	=105
.	.	(4f\	.	(4f/	.	(8.aa\L	.	.	.	.	.	.
.	.	.	.	.	.	16bb-\Jk)	.	.	.	.	.	.
.	.	4e\	.	4e/	.	(8.gg\L	.	.	.	.	.	.
.	.	.	.	.	.	16aa\Jk)	.	.	.	.	.	.
=106	=106	=106	=106	=106	=106	=106	=106	=106	=106	=106	=106	=106
.	.	4d\	.	4d/	.	(8.ff\L	.	.	.	.	.	.
.	.	.	.	.	.	16gg\Jk)	.	.	.	.	.	.
.	.	4c#X\)	.	4c#X/)	.	(8.ee\L	.	.	.	.	.	.
.	.	.	.	.	.	16ff\Jk)	.	.	.	.	.	.
!	!	!	!	!LO:LB:g=original	!	!	!	!	!	!	!	!
=107	=107	=107	=107	=107	=107	=107	=107	=107	=107	=107	=107	=107
.	.	8d\L	.	8d/L	.	4dd\	.	.	.	.	.	.
.	.	8e\	.	8e/	.	.	.	.	.	.	.	.
.	.	8f\	.	8f/	.	4r	.	.	.	.	.	.
.	.	8d\J	.	8d/J	.	.	.	.	.	.	.	.
!	!	!	!	!	!	!LO:LB:g=original	!	!	!	!	!	!
=108	=108	=108	=108	=108	=108	=108	=108	=108	=108	=108	=108	=108
!LO:N:vis=00	!	!	!	!	!	!	!	!LO:N:vis=00	!	!LO:N:vis=00	!LO:N:vis=00	!LO:N:vis=00
0r	.	8g\L	.	8g/L	.	8bb-\L	.	0r	.	0r	0r	0r
.	.	8f\	.	8f/	.	8aa\	.	.	.	.	.	.
.	.	8g\	.	8g/	.	8bb-\	.	.	.	.	.	.
.	.	8e\J	.	8e/J	.	8gg\J	.	.	.	.	.	.
=109	=109	=109	=109	=109	=109	=109	=109	=109	=109	=109	=109	=109
!	!	!LO:TX:a:t=P:problem:takty zapisane powtórką	!	!LO:TX:a:t=P:problem:takty zapisane powtórką	!	!	!	!	!	!	!	!
.	.	8d\Lyy	.	8d/Lyy	.	4ff\	.	.	.	.	.	.
.	.	8e\yy	.	8e/yy	.	.	.	.	.	.	.	.
.	.	8f\yy	.	8f/yy	.	4r	.	.	.	.	.	.
.	.	8d\Jyy	.	8d/Jyy	.	.	.	.	.	.	.	.
=110	=110	=110	=110	=110	=110	=110	=110	=110	=110	=110	=110	=110
.	.	8g\Lyy	.	8g/Lyy	.	8bb-\L	.	.	.	.	.	.
.	.	8f\yy	.	8f/yy	.	8aa\	.	.	.	.	.	.
.	.	8g\yy	.	8g/yy	.	8bb-\	.	.	.	.	.	.
.	.	8e\Jyy	.	8e/Jyy	.	8gg\J	.	.	.	.	.	.
=111	=111	=111	=111	=111	=111	=111	=111	=111	=111	=111	=111	=111
!	!	!	!	!	!	!	!LO:DY:a	!	!	!	!	!
.	.	8d\L	.	8d/L	.	4ff\	f	.	.	.	.	.
.	.	8e\	.	8e/	.	.	.	.	.	.	.	.
.	.	8f\	.	8f/	.	4r	.	.	.	.	.	.
.	.	8d\J	.	8d/J	.	.	.	.	.	.	.	.
=112	=112	=112	=112	=112	=112	=112	=112	=112	=112	=112	=112	=112
!LO:N:vis=00	!	!	!	!	!	!	!LO:DY:a	!LO:N:vis=00	!	!LO:N:vis=00	!LO:N:vis=00	!LO:N:vis=00
0r	.	8g\L	.	8g/L	.	8bb-\L	p	0r	.	0r	0r	0r
.	.	8f\	.	8f/	.	8aa\	.	.	.	.	.	.
.	.	8g\	.	8g/	.	8bb-\	.	.	.	.	.	.
.	.	8e\J	.	8e/J	.	8gg\J	.	.	.	.	.	.
=113	=113	=113	=113	=113	=113	=113	=113	=113	=113	=113	=113	=113
!	!	!	!	!	!	!	!LO:DY:a	!	!	!	!	!
.	.	(4f\	.	4f/	.	(8.aa\L	p	.	.	.	.	.
.	.	.	.	.	.	16bb-\Jk)	.	.	.	.	.	.
!	!	!	!	!	!	!	!LO:DY:a	!	!	!	!	!
.	.	4e\	.	4e/	.	(8.gg\L	p	.	.	.	.	.
.	.	.	.	.	.	16aa\Jk)	.	.	.	.	.	.
=114	=114	=114	=114	=114	=114	=114	=114	=114	=114	=114	=114	=114
.	.	4d\)	.	4d/	.	(8.ff\L	.	.	.	.	.	.
.	.	.	.	.	.	16gg\Jk)	.	.	.	.	.	.
.	.	4c#X\	.	4c#X/	.	(8.ee\L	.	.	.	.	.	.
.	.	.	.	.	.	16ff\Jk)	.	.	.	.	.	.
=115	=115	=115	=115	=115	=115	=115	=115	=115	=115	=115	=115	=115
.	.	8d\L	.	8d/L	.	4dd\	.	.	.	.	.	.
.	.	8e\	.	8e/	.	.	.	.	.	.	.	.
.	.	8f\	.	8f/	.	8r	.	.	.	.	.	.
.	.	8d\J	.	8d/J	.	8aa\	.	.	.	.	.	.
=116	=116	=116	=116	=116	=116	=116	=116	=116	=116	=116	=116	=116
*	*	*tremolo	*	*tremolo	*	*	*	*	*	*	*	*
!LO:N:vis=00	!	!	!	!	!	!	!	!LO:N:vis=00	!	!LO:N:vis=00	!LO:N:vis=00	!LO:N:vis=00
0r	.	8B-/L	.	8B-/L	.	8ddd\L	.	0r	.	0r	0r	0r
.	.	8B-/	.	8B-/	.	8bb-\	.	.	.	.	.	.
.	.	8B-/	.	8B-/	.	8aa\	.	.	.	.	.	.
.	.	8B-/J	.	8B-/J	.	8gg#X\J	.	.	.	.	.	.
=117	=117	=117	=117	=117	=117	=117	=117	=117	=117	=117	=117	=117
.	.	8A/L	.	8A/L	.	4aa\	.	.	.	.	.	.
.	.	8A/	.	8A/	.	.	.	.	.	.	.	.
.	.	8A/	.	8A/	.	8r	.	.	.	.	.	.
.	.	8A/J	.	8A/J	.	8aa\	.	.	.	.	.	.
!	!	!LO:LB:g=original	!	!	!	!	!	!	!	!	!	!
=118	=118	=118	=118	=118	=118	=118	=118	=118	=118	=118	=118	=118
.	.	8B-/L	.	8B-/L	.	8ddd\L	.	.	.	.	.	.
.	.	8B-/	.	8B-/	.	8bb-\	.	.	.	.	.	.
.	.	8B-/	.	8B-/	.	8aa\	.	.	.	.	.	.
.	.	8B-/J	.	8B-/J	.	8gg#X\J	.	.	.	.	.	.
=119	=119	=119	=119	=119	=119	=119	=119	=119	=119	=119	=119	=119
!	!	!	!	!	!	!LO:TX:a:t=P:problem:takty zapisane powtórką	!	!	!	!	!	!
.	.	8A/L	.	8A/L	.	4aa\yy	.	.	.	.	.	.
.	.	8A/	.	8A/	.	.	.	.	.	.	.	.
.	.	8A/	.	8A/	.	8ryy	.	.	.	.	.	.
.	.	8A/J	.	8A/J	.	8aa\yy	.	.	.	.	.	.
=120	=120	=120	=120	=120	=120	=120	=120	=120	=120	=120	=120	=120
!LO:N:vis=00	!	!	!	!	!	!	!	!LO:N:vis=00	!	!LO:N:vis=00	!LO:N:vis=00	!LO:N:vis=00
0r	.	8B-/L	.	8B-/L	.	8ddd\Lyy	.	0r;	.	0r;	0r	0r
.	.	8B-/	.	8B-/	.	8bb-\yy	.	.	.	.	.	.
.	.	8B-/	.	8B-/	.	8aa\yy	.	.	.	.	.	.
.	.	8B-/J	.	8B-/J	.	8gg#X\Jyy	.	.	.	.	.	.
*	*	*Xtremolo	*	*Xtremolo	*	*	*	*	*	*	*	*
=121	=121	=121	=121	=121	=121	=121	=121	=121	=121	=121	=121	=121
.	.	4A/	.	4A/	.	4aa\	.	.	.	.	.	.
.	.	4r	.	4r	.	4r	.	.	.	.	.	.
=122	=122	=122	=122	=122	=122	=122	=122	=122	=122	=122	=122	=122
.	.	4A/	.	4a/	.	4aa\	.	.	.	.	.	.
.	.	4r	.	4r	.	4r;	.	.	.	.	.	.
=123	=123	=123	=123	=123	=123	=123	=123	=123	=123	=123	=123	=123
!	!	!	!	!	!	!LO:TX:a:t=P:problem:takty zapisane powtórką	!	!	!	!	!	!
.	.	4A/	.	4a/	.	4aa\yy	.	.	.	.	.	.
.	.	4r;	.	4r;	.	4ryy	.	.	.	.	.	.
=124	=124	=124	=124	=124	=124	=124	=124	=124	=124	=124	=124	=124
*	*	*k[f#c#]	*	*k[f#c#]	*	*k[f#c#]	*	*k[f#c#]	*	*	*	*
!LO:N:vis=00	!	!	!	!	!	!	!	!LO:N:vis=00	!	!LO:N:vis=00	!LO:N:vis=00	!LO:N:vis=00
0r	.	8d\L	.	8d/L	.	8.ff#\L	.	0r	.	0r	0r	0r
.	.	8A\	.	8A/	.	.	.	.	.	.	.	.
.	.	.	.	.	.	16gg\Jk	.	.	.	.	.	.
.	.	.	.	.	.	8qqgg/	.	.	.	.	.	.
.	.	8e\	.	8e/	.	8gg\L	.	.	.	.	.	.
.	.	8A\J	.	8A/J	.	16ff#\L	.	.	.	.	.	.
.	.	.	.	.	.	16gg\JJ	.	.	.	.	.	.
!	!	!	!	!LO:LB:g=original	!	!LO:LB:g=original	!	!	!	!	!	!
=125	=125	=125	=125	=125	=125	=125	=125	=125	=125	=125	=125	=125
.	.	8f#\L	.	8f#/L	.	4.aa\	.	.	.	.	.	.
.	.	8d\	.	8d/	.	.	.	.	.	.	.	.
.	.	8f#\	.	8f#/	.	.	.	.	.	.	.	.
.	.	8d\J	.	8d/J	.	8aa\	.	.	.	.	.	.
=126	=126	=126	=126	=126	=126	=126	=126	=126	=126	=126	=126	=126
.	.	8g\L	.	8g/L	.	4.bb\	.	.	.	.	.	.
.	.	8d\	.	8d/	.	.	.	.	.	.	.	.
.	.	8g\	.	8g/	.	.	.	.	.	.	.	.
.	.	8d\J	.	8d/J	.	16ccc#\LL	.	.	.	.	.	.
.	.	.	.	.	.	16ddd\JJ	.	.	.	.	.	.
=127	=127	=127	=127	=127	=127	=127	=127	=127	=127	=127	=127	=127
.	.	8f#\L	.	8f#/L	.	4.aa\	.	.	.	.	.	.
.	.	8d\	.	8d/	.	.	.	.	.	.	.	.
.	.	8f#\	.	8f#/	.	.	.	.	.	.	.	.
.	.	8d\J	.	8d/J	.	8aa\	.	.	.	.	.	.
=128	=128	=128	=128	=128	=128	=128	=128	=128	=128	=128	=128	=128
!LO:N:vis=00	!	!LO:TX:a:t=P:problem:takty zapisane powtórką	!	!	!	!	!	!LO:N:vis=00	!	!LO:N:vis=00	!LO:N:vis=00	!LO:N:vis=00
0r	.	8g\Lyy	.	8g/L	.	4.bb\	.	0r	.	0r	0r	0r
.	.	8d\yy	.	8d/	.	.	.	.	.	.	.	.
.	.	8g\yy	.	8g/	.	.	.	.	.	.	.	.
.	.	8d\Jyy	.	8d/J	.	16ccc#\LL	.	.	.	.	.	.
.	.	.	.	.	.	16ddd\JJ	.	.	.	.	.	.
=129	=129	=129	=129	=129	=129	=129	=129	=129	=129	=129	=129	=129
.	.	8f#\Lyy	.	8f#/L	.	4.aa\	.	.	.	.	.	.
.	.	8d\yy	.	8d/	.	.	.	.	.	.	.	.
.	.	8f#\yy	.	8f#/	.	.	.	.	.	.	.	.
.	.	8d\Jyy	.	8d/J	.	8dd\	.	.	.	.	.	.
=130	=130	=130	=130	=130	=130	=130	=130	=130	=130	=130	=130	=130
.	.	8g\L	.	8g/L	.	4cc#`\	.	.	.	.	.	.
.	.	8A\	.	8A/	.	.	.	.	.	.	.	.
.	.	8f#\	.	8f#/	.	4dd`\	.	.	.	.	.	.
.	.	8A\J	.	8A/J	.	.	.	.	.	.	.	.
=131	=131	=131	=131	=131	=131	=131	=131	=131	=131	=131	=131	=131
.	.	8c#\L	.	8c#/L	.	4gg`\	.	.	.	.	.	.
.	.	8A\	.	8A/	.	.	.	.	.	.	.	.
.	.	8d\	.	8d/	.	4ff#`\	.	.	.	.	.	.
.	.	8A\J	.	8A/J	.	.	.	.	.	.	.	.
!	!	!	!	!	!	!	!	!	!	!	!LO:LB:g=original	!
=132	=132	=132	=132	=132	=132	=132	=132	=132	=132	=132	=132	=132
!LO:N:vis=0	!	!	!	!	!	!	!	!LO:N:vis=00	!	!LO:N:vis=00	!LO:N:vis=0	!LO:N:vis=0
1r	.	8g\L	.	8g/L	.	4cc#`\	.	1r	.	1r	1r	1r
.	.	8A\	.	8A/	.	.	.	.	.	.	.	.
.	.	8f#\	.	8f#/	.	4dd`\	.	.	.	.	.	.
.	.	8A\J	.	8A/J	.	.	.	.	.	.	.	.
=133	=133	=133	=133	=133	=133	=133	=133	=133	=133	=133	=133	=133
.	.	8e\L	.	8e/L	.	(8ee\L	.	.	.	.	.	.
.	.	8A\	.	8A/	.	8cc#\J)	.	.	.	.	.	.
.	.	8c#\	.	8c#/	.	4a/	.	.	.	.	.	.
.	.	8A\J	.	8A/J	.	.	.	.	.	.	.	.
!LO:LB:g=original	!	!	!	!	!	!	!	!	!	!	!	!LO:LB:g=original
=134	=134	=134	=134	=134	=134	=134	=134	=134	=134	=134	=134	=134
!	!	!	!LO:DY:a	!	!	!	!	!	!	!	!	!
8D/L	.	8d\L	f	8d/L	.	8.ff#\L	.	4F#/	.	4d\	8.ff#\L	8.ff#\L
8AA/	.	8A\	.	8A/	.	.	.	.	.	.	.	.
.	.	.	.	.	.	16gg\Jk	.	.	.	.	16gg\Jk	16gg\Jk
.	.	.	.	.	.	8qqgg/	.	.	.	.	8qqgg/	8qqgg/
8E/	.	8e\	.	8e/	.	8gg\L	.	4A/	.	4e\	8gg\L	8gg\L
8AA/J	.	8A\J	.	8A/J	.	16ff#\L	.	.	.	.	16ff#\L	16ff#\L
.	.	.	.	.	.	16gg\JJ	.	.	.	.	16gg\JJ	16gg\JJ
=135	=135	=135	=135	=135	=135	=135	=135	=135	=135	=135	=135	=135
8F#\L	.	8f#\L	.	8f#/L	.	4.aa\	.	4d\	.	4f#\	4.aa\	4.aa\
8D\	.	8d\	.	8d/	.	.	.	.	.	.	.	.
8F#\	.	8f#\	.	8f#/	.	.	.	4D/	.	4d\	.	.
8D\J	.	8d\J	.	8d/J	.	8aa\	.	.	.	.	8aa\	8aa\
!	!	!LO:LB:g=original	!	!	!	!	!	!	!	!LO:LB:g=original	!	!
=136	=136	=136	=136	=136	=136	=136	=136	=136	=136	=136	=136	=136
8G\L	.	8g\L	.	8g/L	.	4.bb\	.	2D/	.	2d\	4.bb\	4.bb\
8D\	.	8d\	.	8d/	.	.	.	.	.	.	.	.
8G\	.	8g\	.	8g/	.	.	.	.	.	.	.	.
8D\J	.	8d\J	.	8d/J	.	16ccc#\LL	.	.	.	.	16ccc#\LL	16ccc#\LL
.	.	.	.	.	.	16ddd\JJ	.	.	.	.	16ddd\JJ	16ddd\JJ
=137	=137	=137	=137	=137	=137	=137	=137	=137	=137	=137	=137	=137
!LO:TX:a:t=P:problem:takty zapisane powtórką	!	!LO:TX:a:t=P:problem:takty zapisane powtórką	!	!LO:TX:a:t=P:problem:takty zapisane powtórką	!	!	!	!	!	!	!	!
8F#\Lyy	.	8f#\Lyy	.	8f#/Lyy	.	4.aa\	.	4d\	.	4f#\	4.aa\	4.aa\
8D\yy	.	8d\yy	.	8d/yy	.	.	.	.	.	.	.	.
8F#\yy	.	8f#\yy	.	8f#/yy	.	.	.	4D/	.	4d\	.	.
8D\Jyy	.	8d\Jyy	.	8d/Jyy	.	8aa\	.	.	.	.	8aa\	8aa\
=138	=138	=138	=138	=138	=138	=138	=138	=138	=138	=138	=138	=138
!	!	!	!	!	!	!	!	!LO:TX:a:t=P:problem:takty zapisane powtórką	!	!	!	!
8G\Lyy	.	8g\Lyy	.	8g/Lyy	.	4.bb\	.	2D/yy	.	2d\	4.bb\	4.bb\
8D\yy	.	8d\yy	.	8d/yy	.	.	.	.	.	.	.	.
8G\yy	.	8g\yy	.	8g/yy	.	.	.	.	.	.	.	.
8D\Jyy	.	8d\Jyy	.	8d/Jyy	.	16ccc#\LL	.	.	.	.	16ccc#\LL	16ccc#\LL
.	.	.	.	.	.	16ddd\JJ	.	.	.	.	16ddd\JJ	16ddd\JJ
=139	=139	=139	=139	=139	=139	=139	=139	=139	=139	=139	=139	=139
!	!	!	!	!	!	!	!	!	!	!LO:TX:a:t=P:problem:takty zapisane powtórką	!	!
8F#\L	.	8f#\L	.	8f#/L	.	4.aa\	.	4d\yy	.	2d\yy	4.aa\	4.aa\
8D\	.	8d\	.	8d/	.	.	.	.	.	.	.	.
8F#\	.	8f#\	.	8f#/	.	.	.	4D/yy	.	.	.	.
8D\J	.	8d\J	.	8dd/J	.	8ff#\	.	.	.	.	8dd\	8ff#\
!	!	!	!	!	!	!LO:LB:g=original	!	!	!	!	!	!
=140	=140	=140	=140	=140	=140	=140	=140	=140	=140	=140	=140	=140
!LO:TX:t=P:mixedbeam:problem	!	!LO:TX:t=P:mixedbeam:problem	!	!	!	!	!	!	!	!	!	!
8A\L	.	8a\L	.	8cc#\L	.	8ee\L	.	4A/	.	4e\	8cc#\L	8ee\L
8A\	.	8a\	.	8dd\	.	8ff#\	.	.	.	.	8dd\	8ff#\
8AA/	.	8A/	.	8ee\	.	8gg\	.	4A/	.	4e\	8ee\	8gg\
8AA/J	.	8A/J	.	8cc#\J	.	8ee\J	.	.	.	.	8cc#\J	8ee\J
=141	=141	=141	=141	=141	=141	=141	=141	=141	=141	=141	=141	=141
8D\L	.	8d\L	.	(16dd\KL	.	(8.ff#\L	.	4d\	.	4f#\	(16dd\KL	(16ff#\KL
.	.	.	.	8.ff#\J)	.	.	.	.	.	.	8.ff#\J)	8.aa\J)
8D\	.	8d\	.	.	.	.	.	.	.	.	.	.
.	.	.	.	.	.	16aa\Jk)	.	.	.	.	.	.
8F#\	.	8f#\	.	(16f#/KL	.	(8.dd\L	.	4d\	.	4f#\	(16f#/KL	(16dd\KL
.	.	.	.	8.a/J)	.	.	.	.	.	.	8.a/J)	8.ff#\J)
8F#\J	.	8f#\J	.	.	.	.	.	.	.	.	.	.
.	.	.	.	.	.	16ff#\Jk)	.	.	.	.	.	.
!	!	!	!	!LO:LB:g=original	!	!	!	!	!	!	!	!
=142	=142	=142	=142	=142	=142	=142	=142	=142	=142	=142	=142	=142
!LO:TX:t=P:mixedbeam:problem	!	!LO:TX:t=P:mixedbeam:problem	!	!	!	!	!	!	!	!	!	!
8G\L	.	8g\L	.	(16g/KL	.	(8.ee\L	.	4e\	.	4e\	(16g/KL	(16ee\KL
.	.	.	.	8.b/J)	.	.	.	.	.	.	8.b/J)	8.gg\J)
8G\	.	8g\	.	.	.	.	.	.	.	.	.	.
.	.	.	.	.	.	16gg\Jk)	.	.	.	.	.	.
8A\	.	8a\	.	(16e/KL	.	(8.cc#\L	.	4A/	.	4e\	(16e/KL	(16cc#\KL
.	.	.	.	8.g/J)	.	.	.	.	.	.	8.g/J)	8.ee\J)
8AA/J	.	8A/J	.	.	.	.	.	.	.	.	.	.
.	.	.	.	.	.	16ee\Jk)	.	.	.	.	.	.
=143	=143	=143	=143	=143	=143	=143	=143	=143	=143	=143	=143	=143
8D\L	.	8f#\L	.	8d/L	.	8dd\L	.	4F#/	.	4d\	4f#/	4ff#\
8D\	.	8f#\	.	8f#/	.	8ff#\	.	.	.	.	.	.
8F#\	.	8d\	.	8a/	.	8aa\	.	4d\	.	4f#\	4dd\	4dd\
8F#\J	.	8d\J	.	8dd/J	.	8ddd\J	.	.	.	.	.	.
=144	=144	=144	=144	=144	=144	=144	=144	=144	=144	=144	=144	=144
!LO:TX:t=P:mixedbeam:problem	!	!	!	!	!LO:DY:a	!	!	!	!	!	!	!
8E/L	.	8A\L	.	8cc#/L	f	(8ccc#\L	.	2A/	.	2e\	8a\L	8a\L
8E/	.	8c#\	.	8a/	.	8aa\)	.	.	.	.	8cc#\	8cc#\
8AA/	.	8e\	.	8g/	.	8gg\	.	.	.	.	8ee\	8ee\
8AA/J	.	8c#\J	.	8e/J	.	8ee\J	.	.	.	.	8cc#\J	8cc#\J
=145	=145	=145	=145	=145	=145	=145	=145	=145	=145	=145	=145	=145
!	!	!	!	!LO:TX:a:t=P:problem:takty zapisane powtórką	!	!	!	!	!	!	!	!
8D\L	.	8f#\L	.	8d/Lyy	.	8dd\L	.	4F#/	.	4d\	4ff#\	4ff#\
8D\	.	8f#\	.	8f#/yy	.	8ff#\	.	.	.	.	.	.
8F#\	.	8d\	.	8a/yy	.	8aa\	.	4d\	.	4f#\	4dd\	4dd\
8F#\J	.	8d\J	.	8dd/Jyy	.	8ddd\J	.	.	.	.	.	.
=146	=146	=146	=146	=146	=146	=146	=146	=146	=146	=146	=146	=146
8E/L	.	8A\L	.	8cc#/Lyy	.	(8ccc#\L	.	2A/	.	2e\	8a\L	8a\L
8E/	.	8c#\	.	8a/yy	.	8aa\)	.	.	.	.	8cc#\	8cc#\
8AA/	.	8e\	.	8g/yy	.	8gg\	.	.	.	.	8ee\	8ee\
8AA/J	.	8c#\J	.	8e/Jyy	.	8ee\J	.	.	.	.	8cc#\J	8cc#\J
=147	=147	=147	=147	=147	=147	=147	=147	=147	=147	=147	=147	=147
!LO:TX:a:t=P:problem:takty zapisane powtórką	!	!	!	!	!	!	!	!	!	!	!	!
8D\Lyy	.	8f#\L	.	8d/L	.	8dd\L	.	4F#/	.	4d\	4ff#\	4ff#\
8D\yy	.	8f#\	.	8f#/	.	8ff#\	.	.	.	.	.	.
8F#\yy	.	8d\	.	8a/	.	8aa\	.	4d\	.	4f#\	4dd\	4dd\
8F#\Jyy	.	8d\J	.	8dd/J	.	8ddd\J	.	.	.	.	.	.
!	!	!	!	!	!	!	!	!LO:LB:g=original	!	!	!LO:LB:g=original	!
=148	=148	=148	=148	=148	=148	=148	=148	=148	=148	=148	=148	=148
!	!	!	!	!	!	!	!	!	!	!LO:TX:a:t=P:problem:takty zapisane powtórką	!	!
8E/Lyy	.	8A\L	.	8cc#/L	.	8ccc#\L	.	2A/	.	2e\yy	8a\L	8a\L
!	!	!	!	!	!LO:DY:a	!	!	!	!	!	!	!
8E/yy	.	8c#\	.	8a/	f	8aa\	.	.	.	.	8cc#\	8cc#\
8AA/yy	.	8e\	.	8g/	.	8gg\	.	.	.	.	8ee\	8ee\
8AA/Jyy	.	8c#\J	.	8e/J	.	8ee\J	.	.	.	.	8cc#\J	8cc#\J
!	!	!	!	!	!	!	!	!	!	!	!	!LO:LB:g=original
=149	=149	=149	=149	=149	=149	=149	=149	=149	=149	=149	=149	=149
8D\L	.	8d\L	.	(16d/KL	.	(8.ff#\L	.	4F#/	.	4d\yy	4dd\	4dd\
.	.	.	.	8.f#/J)	.	.	.	.	.	.	.	.
8D\	.	8d\	.	.	.	.	.	.	.	.	.	.
.	.	.	.	.	.	16aa\Jk)	.	.	.	.	.	.
8F#\	.	8f#\	.	(16f#/KL	.	(8.dd\L	.	4d\	.	4f#\yy	4dd\	4ff#\
.	.	.	.	8.a/J)	.	.	.	.	.	.	.	.
8F#\J	.	8f#\J	.	.	.	.	.	.	.	.	.	.
.	.	.	.	.	.	16ff#\Jk)	.	.	.	.	.	.
=150	=150	=150	=150	=150	=150	=150	=150	=150	=150	=150	=150	=150
*	*	*	*	*	*	*	*	*	*	*	*	*2\right
!LO:TX:t=P:mixedbeam:problem	!	!LO:TX:t=P:mixedbeam:problem	!	!	!	!	!	!	!	!	!	!LO:SIC:o=:v: caudy półnut z prawej strony
8G\L	.	8g\L	.	(16g/KL	.	(16ee\KL	.	4e\	.	4e\	4ee\	2ee\
.	.	.	.	8.b/J)	.	8.gg\J)	.	.	.	.	.	.
8G\	.	8g\	.	.	.	.	.	.	.	.	.	.
8A\	.	8a\	.	(16e/KL	.	(16cc#\KL	.	4A/	.	4e\	4cc#\	.
.	.	.	.	8.g/J)	.	8.ee\J)	.	.	.	.	.	.
8AA/J	.	8A/J	.	.	.	.	.	.	.	.	.	.
=151	=151	=151	=151	=151	=151	=151	=151	=151	=151	=151	=151	=151
!	!	!	!LO:DY:a	!	!LO:DY:a	!	!LO:DY:a	!	!	!	!	!
4D\	.	4f#\	p	8d/L	p	8dd\L	p	4F#/	.	4d\	4dd\	4dd\
.	.	.	.	8f#/	.	8ff#\	.	.	.	.	.	.
4F#\	.	4d\	.	8a/	.	8aa\	.	4r	.	4r	4r	4r
.	.	.	.	8dd/J	.	8ddd\J	.	.	.	.	.	.
!	!	!LO:LB:g=original	!	!	!	!	!	!	!	!	!	!
=152	=152	=152	=152	=152	=152	=152	=152	=152	=152	=152	=152	=152
!	!	!	!	!	!	!	!	!LO:N:vis=0	!	!LO:N:vis=0	!LO:N:vis=0	!LO:N:vis=0
4E\	.	8A\L	.	8cc#/L	.	8ccc#\L	.	1r	.	1r	1r	1r
.	.	8c#\	.	8a/	.	8aa\	.	.	.	.	.	.
4AA/	.	8e\	.	8g/	.	8gg\	.	.	.	.	.	.
.	.	8c#\J	.	8e/J	.	8ee\J	.	.	.	.	.	.
!	!	!	!	!	!	!LO:LB:g=original	!	!	!	!	!	!
=153	=153	=153	=153	=153	=153	=153	=153	=153	=153	=153	=153	=153
!	!	!	!	!LO:TX:a:t=P:problem:takty zapisane powtórką	!	!	!LO:DY:a	!	!	!	!	!
4D\	.	4f#\	.	8d/Lyy	.	8dd\L	f	.	.	.	.	.
.	.	.	.	8f#/yy	.	8ff#\	.	.	.	.	.	.
4F#\	.	4d\	.	8a/yy	.	8aa\	.	.	.	.	.	.
.	.	.	.	8dd/Jyy	.	8ddd\J	.	.	.	.	.	.
=154	=154	=154	=154	=154	=154	=154	=154	=154	=154	=154	=154	=154
4E\	.	8A\L	.	8cc#/Lyy	.	8ccc#\L	.	2r	.	2r	2r	2r
.	.	8c#\	.	8a/yy	.	8aa\	.	.	.	.	.	.
4AA/	.	8e\	.	8g/yy	.	8gg\	.	.	.	.	.	.
.	.	8c#\J	.	8e/Jyy	.	8ee\J	.	.	.	.	.	.
!LO:LB:g=original	!	!	!	!	!	!	!	!	!	!	!	!
=155	=155	=155	=155	=155	=155	=155	=155	=155	=155	=155	=155	=155
8D\L	.	8f#\L	.	8d/L	.	8dd\L	.	4r	.	4r	4r	4r
8D\	.	8f#\	.	8f#/	.	8ff#\	.	.	.	.	.	.
8F#\	.	8d\	.	8a/	.	8aa\	.	4d\	.	4f#\	4dd\	4dd\
8F#\J	.	8d\J	.	8dd/J	.	8ddd\J	.	.	.	.	.	.
=156	=156	=156	=156	=156	=156	=156	=156	=156	=156	=156	=156	=156
8E/L	.	8A\L	.	8cc#/L	.	8ccc#\L	.	2A/	.	2e\	8a\L	8a\L
8E/	.	8c#\	.	8a/	.	8aa\	.	.	.	.	8cc#\	8cc#\
8AA/	.	8e\	.	8g/	.	8gg\	.	.	.	.	8ee\	8ee\
8AA/J	.	8c#\J	.	8e/J	.	8ee\J	.	.	.	.	8cc#\J	8cc#\J
=157	=157	=157	=157	=157	=157	=157	=157	=157	=157	=157	=157	=157
!!pagebreak:original
8D\L	.	8d\L	.	(16d/KL	.	(16ff#\KL	.	4F#/	.	4d\	4dd\	4dd\
.	.	.	.	8.f#/J)	.	8.aa\J)	.	.	.	.	.	.
8D\	.	8d\	.	.	.	.	.	.	.	.	.	.
8F#\	.	8f#\	.	(16f#/KL	.	(16dd\KL	.	4d\	.	4f#\	4dd\	4ff#\
.	.	.	.	8.a/J)	.	8.ff#\J)	.	.	.	.	.	.
8F#\J	.	8f#\J	.	.	.	.	.	.	.	.	.	.
=158	=158	=158	=158	=158	=158	=158	=158	=158	=158	=158	=158	=158
!LO:TX:t=P:mixedbeam:problem	!	!LO:TX:t=P:mixedbeam:problem	!	!	!	!	!	!	!	!	!	!
8G\L	.	8g\L	.	(16g/KL	.	(8.ee\L	.	4e\	.	4e\	4ee\	2ee\
.	.	.	.	8.b/J)	.	.	.	.	.	.	.	.
8G\	.	8g\	.	.	.	.	.	.	.	.	.	.
.	.	.	.	.	.	16gg\Jk)	.	.	.	.	.	.
8A\	.	8a\	.	(16e/KL	.	(16cc#\KL	.	4A/	.	4e\	4cc#\	.
.	.	.	.	8.g/J)	.	8.ee\J)	.	.	.	.	.	.
8AA/J	.	8A/J	.	.	.	.	.	.	.	.	.	.
!	!	!	!	!LO:LB:g=original	!	!	!	!	!	!	!	!
=159	=159	=159	=159	=159	=159	=159	=159	=159	=159	=159	=159	=159
4D\	.	4d\	.	8f#/L	.	8dd\L	.	4F#/	.	4d\	4dd\	4dd\
.	.	.	.	8f#/	.	8ff#\	.	.	.	.	.	.
4r	.	4r	.	8a/	.	8aa\	.	4r	.	4r	4r	4r
.	.	.	.	8f#/J	.	8ff#\J	.	.	.	.	.	.
=160	=160	=160	=160	=160	=160	=160	=160	=160	=160	=160	=160	=160
4D/	.	4d/|	.	4A/ 4f#/ 4dd/	.	4d/ 4a/ 4ff#/ 4ddd/	.	4d\	.	4f#\	4gg\	4ddd\
4D/	.	4d/|	.	4A/ 4f#/ 4dd/	.	4d/ 4a/ 4ff#/ 4ddd/	.	4d\	.	4f#\	4gg\	4ddd\
=161	=161	=161	=161	=161	=161	=161	=161	=161	=161	=161	=161	=161
!	!	!	!	!	!LO:DY:a	!	!	!	!	!	!LO:SIC:o=:v:brakujący takt	!
4D/	.	4d/|	.	8A/L 8f#/ 8dd/	f	8d/L 8a/ 8ff#/ 8ddd/	.	4d\	.	4f#\	2ryy	4ddd\
.	.	.	.	8f#/	.	8ff#/	.	.	.	.	.	.
4r	.	4r	.	8a/	.	8aa/	.	4r	.	4r	.	4r
.	.	.	.	8f#/J	.	8ff#/J	.	.	.	.	.	.
=162	=162	=162	=162	=162	=162	=162	=162	=162	=162	=162	=162	=162
4D/	.	4d/|	.	4d/|	.	4d/ 4dd/	.	4D/	.	4d\	4d/	4dd\
4D/	.	4d/|	.	4d/|	.	4d/ 4dd/	.	4D/	.	4d\	4d/	4dd\
=163	=163	=163	=163	=163	=163	=163	=163	=163	=163	=163	=163	=163
!	!	!	!	!	!LO:DY:a	!	!	!	!	!	!	!
4D/	.	4d/|	.	8f#/L	f	8d/L 8dd/	.	4D/	.	4d\	4d/	4dd\
.	.	.	.	8f#/	.	8f#/	.	.	.	.	.	.
4r	.	4r	.	8a/	.	8a/	.	4r	.	4r	4r	4r
.	.	.	.	8f#/J	.	8f#/J	.	.	.	.	.	.
=164	=164	=164	=164	=164	=164	=164	=164	=164	=164	=164	=164	=164
4D/	.	4d/|	.	4d/|	.	4d`/	.	4D/	.	4D/	4d/	4d/
4D/	.	4d/|	.	4d/|	.	4d`/	.	4D/	.	4D/	4d/	4d/
=165	=165	=165	=165	=165	=165	=165	=165	=165	=165	=165	=165	=165
4D/	.	4d/|	.	4d/|	.	4d`/	.	4D/	.	4D/	4d/	4d/
4r	.	4r	.	4r	.	4r	.	4r	.	4r	4r	4r
=166	=166	=166	=166	=166	=166	=166	=166	=166	=166	=166	=166	=166
!	!	!	!	!	!	!	!	!	!	!LO:TX:a:t=P:problem:takty zapisane powtórką	!	!
4D/	.	4d/	.	4d/|	.	4d`/	.	4D/	.	4D/yy	4d/	4d/
4r	.	4r	.	4r	.	4r	.	4r	.	4ryy	4r	4r
!	!	!LO:LB:g=original	!	!	!	!	!	!	!	!	!	!
=167	=167	=167	=167	=167	=167	=167	=167	=167	=167	=167	=167	=167
4D/	.	4d\	.	4d/	.	4d`/	.	4D/	.	4D/	4d/	4d/
4r;	.	4r;	.	4r;	.	4r	.	4r;	.	4r;	4r;	4r;
!	!	!	!	!LO:TX:t=fine	!	!	!	!LO:TX:b:t=fine	!	!	!	!
==	==	==	==	==	==	==;	==	==	==	==	==	==
*-	*-	*-	*-	*-	*-	*-	*-	*-	*-	*-	*-	*-
!!!system-decoration: [(s1,s2)][(s3,s4)][(s5,s6,s7,s8)]
!!!RDF**kern: > = above
!!!RDF**kern: < = below
!!!RDF**dynam: p = p&colon;
!!!RDF**dynam: f = f&colon;
!!!EED: Leszek Kubiak
!!!EST: 2020-09-15
!!!ENC: Berenika Jozajtis
!!!END: 2020-05-14
!!!RDF**kern: | = vertical stroke
